X:1
T:Title
%%score { ( 1 3 ) | 2 }
L:1/8
Q:1/4=120
M:3/4
K:F
V:1 treble nm="Grand Piano"
V:3 treble 
V:2 bass 
V:1
 [CFA]6 | [CFA]6 | [FAc]6 | [FAc]6 | [EBc]6 | [EBc]6 | [FAc]4 [FB]2 | [FA]6 | [CFA]6 | [CFA]6 | %10
w: C.~Harold~Lowden||||||||||
 [FAc]6 | [FAc]6 | [F_Ac]6 | [Gc]6 | c2 A2 =B2 | c6 | [Ee]2 [Ed]2 [Ec]2 | A2- [DA-]2 [EA]2 | %18
w: ||||||||
 G2 F2 A2 | c6 | d2 e2 f2 | f2 c2 [C^FA]2 | %22
w: ||||
 [=B,FA]2 [B,DF]2 [_B,EG]2[Q:1/4=118][Q:1/4=116][Q:1/4=114][Q:1/4=113][Q:1/4=111][Q:1/4=109][Q:1/4=107][Q:1/4=105][Q:1/4=103][Q:1/4=101][Q:1/4=99][Q:1/4=98][Q:1/4=96][Q:1/4=94][Q:1/4=92] | %23
w: |
 [A,F]6 |] %24
w: |
V:2
 C,2 D,2 E,2 | F,2 G,2 A,2 | C2 D2 A,2 | C6 | C2[K:bass] G,2 A,2 | B,2 A,2 G,2 | A,2 F,2 D,2 | %7
 C,6 | C,2 D,2 E,2 | F,2 G,2 A,2 | C2 D2 A,2 | C6 | D2 C2 D2 | E2 C2 G,2 | %14
 [A,D^F]2 [CDF]2 [D=FG]2 | [CEG]6 | [C,C]2 [C,B,]2 [C,A,]2 | [C,C]6 | [F,B,C]2 [F,A,C]2 [F,CF]2 | %19
 [F,A,F]2 [G,B,]2[K:treble] [A,C]2 | [B,F]2 [B,^CG]2 [B,CG]2 | [A,CF]2 [A,CF]2[K:bass] D,2 | %22
 G,2 G,2 C,2 | F,6 |] %24
V:3
 x6 | x6 | x6 | x6 | x6 | x6 | x6 | x6 | x6 | x6 | x6 | x6 | x6 | x6 | x6 | x6 | x6 | E2 z2 z2 | %18
 x6 | z2 E2 F2 | x6 | x6 | x6 | x6 |] %24

